X:1
T: Dillon's Fancy
C:
R:Reel
Q: 232
K:A
M:4/4
L:1/8
|:EA Ac eA ((3cBA) |ce ae ((3fga) ed|cd ef ed cA|((3Bcd) cA BF ((3FEF) |
EA Ac eA ((3cBA) |ce ae ((3fga) ed|ce fg ag af|1ed cB Ac AG:|2ed cB Ac eg|
|:ae ce ae ce|ag bg ae ce|ae ce ae cA|GA Bc de fg|
ae ce ae ce|ag bg ae ce|A1/2B1/2c1/2d1/2 e1/2f1/2g ag af|1ed cB AB AF:|2ed cB A2 A2||
